X: 1141
T: Watie Laing or the Lifting of the Linnen Reel
%R: reel
B: Niel Gow & Sons "A Collection of Strathspey Reels, etc." v.1 p.14 #1
Z: 2022 John Chambers <jc:trillian.mit.edu>
M: C|
L: 1/8
K: A
% - - - - - - - - - -
% Voice 1 reformatted for 2 8-bar lines, for compactness and proofreading.
V: 1 staves=2
e | A/A/A Tec Bcdf | A/A/A ec AAec | d/e/fc/d/e Bcdf | {f}e(dTcB) AAc ::\
e | A/A/A ac Bcdf | A/A/A ac A/A/A ae | (a/g/f/e/ a).c Bcdf | e(dTcB) AAc ::
e | Aece Bcdf | Aece Aece | d/e/fc/d/e Bcdf | e(dTcB) AAc ::\
e | A/A/A ac Bcdf | A/A/A ac AAae | a/g/f/e/ ac Bcdf | e(dTcB) AAc :|
% - - - - - - - - - -
% Voice 2 preserves the staff layout in the book.
V: 2 clef=bass middle=d
z | a2a2 b2b2 | a2a2 a2a2 | d'2c'2 b2b2 | a2e2 A2A ::
z | a2a2 b2b2 | a2a2 a2a2 | d'2c'2 b2b2 | e2e2 a2a ::
z | a2a2 b2b2 | a2a2 a2a2 | d'2c'2 b2b2 | e2e2 a2a ::
z | a2a2 b2b2 | a2a2 a2a2 | d'2c'2 b2b2 | e2e2 A2A :|


